X:1
T:Title
%%score { ( 1 3 ) | 2 }
L:1/8
M:4/4
K:Eb
V:1 treble nm="Grand Piano"
V:3 treble 
V:2 bass 
V:1
 z4 z2[Q:1/4=100] [EG][FA] | [GB]2 [Ge]2 [GB]2 [Ac]2 | [GB]2 G2 E2 EF | G2 GG B2 AG | %4
[M:3/4] [DF]6 |[M:1/4] [EG][FA] |[M:4/4] [GB]2 [Ge]2 [GB]2 [Ac]2 | [GB]2 G2 E2 EF | %8
 G2 [GB]2 [EG]2 [DF]2 |[M:3/4] E6 |[M:1/4] BG |[M:4/4] e6 z2 | d6 z2 | d4 c2 [DB]2 | %14
[M:3/4] G2 GA B2 |[M:1/4] BG |[M:4/4] e6 z2 | d6 z2 | d4 c2 [DB]2 |[M:3/4] E6 |] %20
V:2
 z4 z2 [E,B,][E,B,] | [E,E]2 [E,B,]2 [E,E]2 [E,E]2 | [E,E]2 [E,B,E]2 [E,G,B,]2 [E,G,][E,A,E] | %3
 [E,B,E]2 [E,B,E][E,B,E] [G,B,E]2 [F,B,D][E,B,E] |[M:3/4] [B,,B,]6 |[M:1/4] [E,B,][E,B,] | %6
[M:4/4] [E,E]2 [E,B,]2 [E,E]2 [E,E]2 | [E,E]2 [E,B,E]2 [E,G,]2 [E,G,][E,A,E] | %8
 [E,B,E]2 [E,B,]2 [B,,B,]2 [B,,A,]2 |[M:3/4] [E,G,]6 |[M:1/4] z2 | %11
[M:4/4] z2 [E,B,][F,B,] [G,B,]2 z2 | z2 [F,B,][G,B,] [A,B,]2 [A,B,D][G,B,E] | %13
 [F,B,F]4 [F,=A,E]2 [B,,B,]2 |[M:3/4] [E,B,E]2 [E,B,E][F,B,D] [G,B,E]2 |[M:1/4] z2 | %16
[M:4/4] z2 [E,B,][F,B,] [G,B,]2 z2 | z2 [F,B,][G,B,] [A,B,]2 [A,B,D][G,B,E] | %18
 [F,B,F]4 [F,=A,E]2 [B,,_A,]2 |[M:3/4] [E,G,]6 |] %20
V:3
 x8 | x8 | x8 | x8 |[M:3/4] x6 |[M:1/4] x2 |[M:4/4] x8 | x8 | x8 |[M:3/4] x6 |[M:1/4] x2 | %11
[M:4/4] z2 GA B2 AF | z2 AG F2 cB | x8 |[M:3/4] x6 |[M:1/4] x2 |[M:4/4] z2 GA B2 AF | z2 AG F2 cB | %18
 x8 |[M:3/4] x6 |] %20

